X: 17
T: Kylebrack Rambler, The
C: Finbarr Dwyer
Z: Ralex
S: https://thesession.org/tunes/361#setting50465
R: reel
M: 4/4
L: 1/8
K: Amix
|:AE~E2 AEcE | AE~E2 GEDE | AE~E2 ~A3B | cdec d2cd |
eaaa agef | g2eg dBGB | AGED EA~A2 | cedB A2cd :|
|: ecdB cA~A2 | ~a3g edef | g2dg Bgdg | g2 bgegdg |
a2c'a ge~e2 | ge~e2 Be~e2 | dB~B2 G2Bd | gedB A2cd :|
|: eA~A2 EA~A2 | ae~e2 agef | g2fa gedB | G2fa gedB |
cA~A2 EA~A2 | ae~e2 agef | g2fa gedB | GBdB A2cd :|

